artwork-breath/artwork-breath-master/icons/22/panel/guake-indicator.svg

<svg xmlns="http://www.w3.org/2000/svg" width="22" height="22" version="1.1">
 <defs>
  <style id="current-color-scheme" type="text/css">
   .ColorScheme-Text { color:#d3dae3; } .ColorScheme-Highlight { color:#4285f4; }
  </style>
 </defs>
 <g>
  <path style="fill:currentColor" class="ColorScheme-Text" d="M 4.9999771,3 C 3.8920055,3 3,3.8919964 3,4.9999771 L 3,17.000023 C 3,18.107994 3.8919964,19 4.9999771,19 L 17.000023,19 C 18.107994,19 19,18.108004 19,17.000023 L 19,4.9999771 C 19,3.8920055 18.108004,3 17.000023,3 Z m 3.9999542,1.9999771 0,0.9999885 2.9999657,0 0,1.9999771 -2.9999657,0 0,0.9999883 0.9999887,0 c 0.749996,0 1.439987,0.317001 1.873019,0.804996 0.432995,0.486996 0.626998,1.09798 0.626998,1.695003 0,0.596996 -0.194003,1.209996 -0.626998,1.69702 -0.432995,0.487995 -1.123005,0.802997 -1.873019,0.802997 l -0.9999887,0 0,0.999989 -0.9999886,0 0,-0.999989 -2.9999656,0 0,-1.999977 2.9999656,0 0,-0.999988 -0.9999885,0 c -0.749996,0 -1.4398039,-0.315003 -1.8730192,-0.802998 C 4.6936372,9.709988 4.499937,9.096988 4.499937,8.499964 4.499937,7.9027672 4.6936372,7.2920766 5.126935,6.8046864 5.560132,6.3172871 6.2499398,5.9999931 6.9999542,5.9999931 l 0.9999885,0 0,-1.0000023 z M 6.9999542,7.9999427 c -0.2500018,0 -0.3101991,0.0597 -0.3769964,0.1347954 -0.066696,0.0751 -0.1229979,0.2125009 -0.1229979,0.3651989 0,0.152799 0.056302,0.292104 0.1229979,0.367197 0.066797,0.0748 0.1269946,0.132797 0.3769964,0.132797 l 0.9999885,0 0,-0.9999883 z m 2.0000687,4.0000463 0.9999881,0 c 0.250002,0 0.309998,-0.058 0.376997,-0.132999 0.067,-0.075 0.122998,-0.214005 0.122998,-0.366996 0,-0.153 -0.056,-0.289995 -0.122998,-0.364997 -0.06692,-0.07517 -0.1265,-0.13475 -0.376749,-0.13475 l -1.0001124,-1.24e-4 z m 2.9999661,2.999965 4.999942,0 0,1.999977 -4.999942,0 z"/>
 </g>
</svg>

<svg xmlns="http://www.w3.org/2000/svg" width="22" height="22"><defs><style id="current-color-scheme" type="text/css"></style></defs><path d="M5 3c-1.108 0-2 .892-2 2v12c0 1.108.892 2 2 2h12c1.108 0 2-.892 2-2V5c0-1.108-.892-2-2-2zm4 2v1h3v2H9v1h1c.75 0 1.44.317 1.873.805.433.487.627 1.098.627 1.695s-.194 1.21-.627 1.697C11.44 13.685 10.75 14 10 14H9v1H8v-1H5v-2h3v-1H7c-.75 0-1.44-.315-1.873-.803A2.537 2.537 0 0 1 4.5 8.5c0-.597.194-1.208.627-1.695C5.56 6.317 6.25 6 7 6h1V5zM7 8c-.25 0-.31.06-.377.135A.574.574 0 0 0 6.5 8.5a.58.58 0 0 0 .123.367C6.69 8.942 6.75 9 7 9h1V8zm2 4h1c.25 0 .31-.058.377-.133a.576.576 0 0 0 .123-.367.57.57 0 0 0-.123-.365C10.31 11.06 10.251 11 10 11H9zm3 3h5v2h-5z" fill="currentColor" color="#bebebe"/></svg>
